src/main/resources/icons/J2EEIcons/icons/web_artifact.svg

<svg xmlns="http://www.w3.org/2000/svg" width="16" height="16" viewBox="0 0 16 16">
  <g fill="none" fill-rule="evenodd">
    <path fill="#9AA7B0" d="M12,8 C9.792,8 8,9.792 8,12 C8,14.208 9.792,16 12,16 C14.208,16 16,14.208 16,12 C16,9.792 14.208,8 12,8 Z M11.6,15.172 C10.02,14.976 8.8,13.632 8.8,12 C8.8,11.752 8.832,11.516 8.884,11.284 L10.8,13.2 L10.8,13.6 C10.8,14.04 11.16,14.4 11.6,14.4 L11.6,15.172 Z M14.36,14.156 C14.256,13.832 13.96,13.6 13.6,13.6 L13.2,13.6 L13.2,12.4 C13.2,12.18 13.02,12 12.8,12 L10.4,12 L10.4,11.2 L11.2,11.2 C11.42,11.2 11.6,11.02 11.6,10.8 L11.6,10 L12.4,10 C12.84,10 13.2,9.64 13.2,9.2 L13.2,9.036 C14.372,9.512 15.2,10.66 15.2,12 C15.2,12.832 14.88,13.588 14.36,14.156 Z"/>
    <path fill="#40B6E0" d="M14.9610263,7.97065346 C14.1321429,7.36051273 13.1081726,7 12,7 C10.8117176,7 9.72025144,7.41451964 8.86231411,8.10684635 L8.8242,8.0693 L11.9122,4.8883 L15.0002,7.9303 L14.9610263,7.97065346 Z"/>
    <polygon fill="#9AA7B0" points="4.912 4.18 8 7.223 11.088 4.042 8 1"/>
    <polygon fill="#40B6E0" points="1 8.069 4.088 11.111 7.176 7.93 4.088 4.888"/>
    <path fill="#9AA7B0" d="M8.09792598,8.8734004 C7.41096053,9.72964488 7,10.81683 7,12 C7,13.1248142 7.37142178,14.1628782 7.99830972,14.9982364 L4.9121,11.958 L8.0001,8.777 L8.09792598,8.8734004 Z"/>
  </g>
</svg>

<svg xmlns="http://www.w3.org/2000/svg" width="16" height="16" viewBox="0 0 16 16"><rect id="frame" width="16" height="16" fill="none"/><g fill="none" fill-rule="evenodd"><path fill="#9AA7B0" d="M12 8c-2.208 0-4 1.792-4 4s1.792 4 4 4 4-1.792 4-4-1.792-4-4-4zm-.4 7.172A3.195 3.195 0 0 1 8.8 12c0-.248.032-.484.084-.716L10.8 13.2v.4c0 .44.36.8.8.8v.772zm2.76-1.016a.794.794 0 0 0-.76-.556h-.4v-1.2c0-.22-.18-.4-.4-.4h-2.4v-.8h.8c.22 0 .4-.18.4-.4V10h.8c.44 0 .8-.36.8-.8v-.164c1.172.476 2 1.624 2 2.964 0 .832-.32 1.588-.84 2.156z"/><path fill="#40B6E0" d="M14.961 7.97A4.978 4.978 0 0 0 12 7a4.98 4.98 0 0 0-3.138 1.107l-.038-.038 3.088-3.18L15 7.93l-.039.04z"/><path fill="#9AA7B0" d="M4.912 4.18L8 7.223l3.088-3.181L8 1z"/><path fill="#40B6E0" d="M1 8.069l3.088 3.042L7.176 7.93 4.088 4.888z"/><path fill="#9AA7B0" d="M8.098 8.873A4.979 4.979 0 0 0 7 12c0 1.125.371 2.163.998 2.998l-3.086-3.04L8 8.777l.098.096z"/></g></svg>
